X:1
T:aaa
Z:bbb
M:4/4
L:1/8
Q:1/4=90
K:C
C, D, E, F, | G, A, B, C | D E F G | A B c d | e f g a | b c' d' e' | f' g' a' b' |
C, D,, E, F,, | G,' A, B,' C | D E F G | A B c d | e f g a | b c' d' e' | f' g' a' b' |
A/32 A/16 A/8 A/4 A/2 A/ A A2 A4 A8 A16 
% next line, all measures are identical
A B c d AB cd | ABcd ABcd | ABcdABcd | 
